src/assets/images/bene11.svg

<svg width="49" height="49" viewBox="0 0 49 49" fill="none" xmlns="http://www.w3.org/2000/svg">
<circle cx="24.025" cy="24.3629" r="24.0074" fill="url(#paint0_linear_674_7)"/>
<path d="M24.1472 9.73633C21.1685 9.73513 18.2564 10.6173 15.7791 12.2713C13.3019 13.9253 11.3708 16.2768 10.2301 19.0284C9.08936 21.7799 8.79028 24.808 9.37066 27.7296C9.95103 30.6511 11.3848 33.335 13.4906 35.4416C15.5964 37.5483 18.2797 38.9831 21.201 39.5647C24.1223 40.1462 27.1505 39.8484 29.9026 38.7087C32.6546 37.5691 35.0069 35.639 36.6619 33.1624C38.3168 30.6858 39.2002 27.7741 39.2002 24.7954C39.1954 20.804 37.6081 16.9774 34.7863 14.1545C31.9645 11.3315 28.1385 9.74273 24.1472 9.73633ZM24.1472 38.8022C20.9441 38.8054 17.8381 37.7031 15.3536 35.6815H15.1601C14.8865 35.6782 14.6222 35.5822 14.4102 35.4093L11.991 33.4135C11.8633 33.3016 11.7596 33.1648 11.6864 33.0115C11.6132 32.8583 11.5719 32.6917 11.5651 32.5219C11.5583 32.3522 11.5862 32.1829 11.6469 32.0242C11.7077 31.8656 11.8 31.721 11.9185 31.5992C10.7195 29.4677 10.0997 27.0594 10.1208 24.6139C10.1419 22.1685 10.8032 19.7712 12.0389 17.6608C13.2746 15.5503 15.0415 13.8004 17.1637 12.5852C19.286 11.3699 21.6895 10.7318 24.1351 10.7342C27.8515 10.7342 31.4157 12.2106 34.0436 14.8385C36.6715 17.4664 38.1479 21.0306 38.1479 24.747C38.1479 28.4634 36.6715 32.0276 34.0436 34.6556C31.4157 37.2835 27.8515 38.7598 24.1351 38.7598L24.1472 38.8022Z" fill="white"/>
<path d="M24.1447 11.5633C20.6362 11.5665 17.2723 12.9616 14.7914 15.4425C12.3105 17.9235 10.9153 21.2874 10.9121 24.7959C10.9165 26.9026 11.4289 28.9772 12.4059 30.8437L12.672 30.1845C11.4172 27.5088 11.1348 24.4792 11.8735 21.6176C12.6122 18.7561 14.3256 16.2417 16.7188 14.5077C19.1119 12.7736 22.0349 11.9284 24.9842 12.1177C27.9334 12.3069 30.7244 13.5188 32.8762 15.5445C35.0281 17.5703 36.4061 20.283 36.773 23.2155C37.1398 26.148 36.4725 29.1166 34.886 31.61C33.2995 34.1034 30.8931 35.9655 28.0813 36.8754C25.2695 37.7854 22.2284 37.6863 19.4819 36.5952C19.4004 36.6293 19.3151 36.6536 19.2279 36.6678C19.1635 36.674 19.0987 36.674 19.0343 36.6678C18.7623 36.666 18.4994 36.5698 18.2905 36.3956L16.331 34.7627C16.2854 34.8846 16.2287 35.002 16.1616 35.1135C16.1368 35.1542 16.1085 35.1927 16.077 35.2284C17.7415 36.5157 19.6892 37.3873 21.7583 37.7708C23.8273 38.1542 25.958 38.0385 27.9733 37.4332C29.9887 36.8278 31.8305 35.7504 33.3458 34.2903C34.8612 32.8303 36.0063 31.0297 36.686 29.0383C37.3658 27.0468 37.5606 24.9219 37.2542 22.84C36.9478 20.7582 36.1492 18.7794 34.9245 17.0682C33.6999 15.357 32.0847 13.9626 30.213 13.001C28.3413 12.0393 26.2672 11.5382 24.1629 11.5391L24.1447 11.5633Z" fill="white"/>
<path d="M13.2692 21.6827L13.3358 21.713L15.7004 22.8923L16.1238 22.4085L16.7588 21.1929L16.2206 20.7151L16.5653 19.9712L14.5574 19.7777L14.4969 19.2818L14.4606 19.0096L13.7349 18.5439L13.1301 18.6891L13.5898 18.8645V19.3725L12.6523 21.5013L13.2692 21.6827Z" fill="white"/>
<path d="M14.6933 28.2324L13.3749 31.5164L13.133 32.1212L13.0664 32.2905L12.752 32.4719L12.8064 32.5203L12.752 32.5506L15.1711 34.5463V34.504C15.2522 34.3514 15.2938 34.1809 15.292 34.0081C15.2952 33.9678 15.2952 33.9274 15.292 33.8871C15.2746 33.7635 15.2193 33.6483 15.1337 33.5573C15.0482 33.4664 14.9366 33.4041 14.8143 33.3791L14.6268 33.3368L14.5119 33.0525L14.3788 32.9679V32.8892V32.6413L14.6086 32.7018L16.0359 29.0731L15.4795 28.2506L14.6933 28.2324Z" fill="white"/>
<path d="M20.3944 17.9089L20.1887 17.3949L19.584 16.7417L19.3965 17.0078L19.33 17.0985L19.1485 16.8566L17.6487 14.7822L16.6205 15.5261L17.7938 17.1409L18.5377 18.1569L15.7255 23.5818L15.6106 24.9547L14.7578 28.0814H15.5138L17.1225 30.3372L16.9169 33.3974L16.6266 33.5607L19.0457 35.5565C19.1247 35.4547 19.1741 35.3331 19.1885 35.205C19.2029 35.077 19.1818 34.9474 19.1274 34.8306C19.0731 34.7138 18.9876 34.6142 18.8804 34.5427C18.7731 34.4713 18.6483 34.4307 18.5196 34.4255L18.4046 34.1413L18.2655 34.0566L18.2353 33.718L18.4288 33.7603L18.7978 30.8634L18.828 30.5066L18.8643 29.9985L17.4309 27.9302L18.193 22.2573H18.1446L19.5356 19.5237L20.9145 21.4227L19.6142 22.5658L18.4046 22.6021L18.199 24.0656L19.8682 23.987L20.2976 23.8842L21.7733 22.6202L22.4627 23.5637L22.7228 23.9265C22.5537 24.1923 22.4635 24.5006 22.4627 24.8156C22.4577 25.245 22.6161 25.6602 22.9057 25.9773C23.1953 26.2943 23.5946 26.4895 24.0227 26.5233C24.4507 26.5572 24.8757 26.4271 25.2115 26.1594C25.5473 25.8918 25.7689 25.5065 25.8314 25.0817L31.6433 21.5921L30.5426 19.7777L24.7488 23.2552C24.5553 23.1834 24.3505 23.1465 24.144 23.1464C24.0033 23.1488 23.8633 23.167 23.7267 23.2008L23.2973 22.596L22.5474 21.5679L22.88 21.2897L22.4446 20.3825H22.0091L21.864 20.6244L21.4588 20.062L20.6907 19.0097L20.1162 18.2174L20.1827 18.1448L20.3944 17.9089Z" fill="white"/>
<defs>
<linearGradient id="paint0_linear_674_7" x1="24.025" y1="0.355469" x2="24.025" y2="48.3703" gradientUnits="userSpaceOnUse">
<stop stop-color="#F4815A"/>
<stop offset="1" stop-color="#F25E53"/>
</linearGradient>
</defs>
</svg>

<svg xmlns="http://www.w3.org/2000/svg" width="49" height="49" fill="none"><circle cx="24.025" cy="24.363" r="24.007" fill="url(#a)"/><path fill="#fff" d="M24.147 9.736A15.06 15.06 0 1 0 39.2 24.796a15.077 15.077 0 0 0-15.053-15.06m0 29.066a13.9 13.9 0 0 1-8.793-3.12h-.194a1.2 1.2 0 0 1-.75-.273l-2.419-1.995a1.25 1.25 0 0 1-.072-1.815 14 14 0 0 1 12.216-20.865 14.013 14.013 0 0 1 0 28.026z"/><path fill="#fff" d="M24.145 11.563a13.245 13.245 0 0 0-13.233 13.233 13.1 13.1 0 0 0 1.494 6.048l.266-.66a12.7 12.7 0 1 1 6.81 6.411 1 1 0 0 1-.254.073 1 1 0 0 1-.194 0 1.17 1.17 0 0 1-.743-.272l-1.96-1.633q-.069.183-.17.35a1 1 0 0 1-.084.115 13.227 13.227 0 1 0 8.086-23.689z"/><path fill="#fff" d="m13.27 21.683.066.03 2.364 1.18.424-.485.635-1.215-.538-.478.344-.744-2.008-.193-.06-.496-.036-.272-.726-.466-.605.145.46.175v.508l-.938 2.13zm1.423 6.549-1.318 3.284-.242.605-.067.17-.314.18.054.05-.054.03 2.42 1.995v-.042c.08-.153.122-.323.12-.496a1 1 0 0 0 0-.12.6.6 0 0 0-.478-.509l-.187-.042-.115-.285-.133-.084v-.327l.23.06 1.427-3.628-.557-.822z"/><path fill="#fff" d="m20.394 17.909-.205-.514-.605-.653-.187.266-.067.09-.181-.241-1.5-2.075-1.029.744 1.174 1.615.744 1.016-2.812 5.425-.115 1.373-.853 3.126h.756l1.608 2.256-.205 3.06-.29.164 2.419 1.995a.701.701 0 0 0-.526-1.13l-.115-.285-.14-.084-.03-.339.194.042.369-2.897.03-.356.036-.509-1.433-2.068.762-5.673h-.048l1.39-2.733 1.38 1.899-1.3 1.143-1.21.036-.206 1.464 1.67-.079.429-.103 1.475-1.264.69.944.26.363c-.17.265-.26.574-.26.889a1.693 1.693 0 0 0 3.368.266l5.812-3.49-1.1-1.814-5.794 3.477a1.7 1.7 0 0 0-.605-.109q-.21.004-.417.055l-.43-.605-.75-1.028.333-.278-.435-.907h-.436l-.145.241-.405-.562-.768-1.052-.575-.793.067-.072z"/><defs><linearGradient id="a" x1="24.025" x2="24.025" y1=".355" y2="48.37" gradientUnits="userSpaceOnUse"><stop stop-color="#F4815A"/><stop offset="1" stop-color="#F25E53"/></linearGradient></defs></svg>
